X: 42454
T: Westmeath Hunt, The
R: reel
M: 4/4
K: Gmajor
|:gB^AB gBaB|gB^AB dB^AB|gB^AB gBaf|efga gfed:|
a2fd Adfd|Adfd edfd|a2fd Adfd|efga gfed|
a2fd Adfd|Adfd edfd|afge fde^c|ed^cd ^de=f^f||

